assets/svg/icon_profile_noimage.svg

<svg width="24" height="24" viewBox="0 0 24 24" fill="none" xmlns="http://www.w3.org/2000/svg">
<path d="M16.91 8.14616H17.0419C17.3826 8.14616 17.6987 8.2966 17.911 8.55987C18.1232 8.82313 18.2003 9.16162 18.1236 9.48886L18.0035 10.0007C17.8864 10.5 17.4414 10.8489 16.9214 10.8489H16.7802C16.6188 12.3947 15.88 13.8161 14.7361 14.8458L14.7186 15.0006C14.6764 15.3775 14.7261 15.7588 14.8637 16.1129C14.8786 16.1506 14.9012 16.185 14.9302 16.2137C14.9591 16.2424 14.9938 16.2649 15.0321 16.2797L18.5897 17.6505C19.4434 17.9795 20.1677 18.5475 20.6846 19.2941C21.2016 20.0403 21.4747 20.9126 21.4747 21.8161C21.4747 22.2671 21.1091 22.6327 20.6581 22.6327H3.34395C2.89295 22.6327 2.52734 22.2671 2.52734 21.8161C2.52734 20.9126 2.8005 20.0403 3.31744 19.2941C3.83438 18.5475 4.5587 17.9795 5.41237 17.6505L8.97043 16.2797C9.0087 16.265 9.04343 16.2425 9.07242 16.2138C9.1014 16.185 9.12401 16.1507 9.1388 16.1129C9.27603 15.7606 9.32602 15.3758 9.28393 15.0006L9.26639 14.8463C8.12158 13.8161 7.38235 12.3947 7.221 10.8489H7.08113C6.56156 10.8489 6.11653 10.5 5.99903 10.0007L5.87889 9.48886C5.80216 9.16162 5.87933 8.8227 6.09154 8.55987C6.30375 8.29704 6.62075 8.14616 6.96143 8.14616H7.09122V4.22138C7.09122 3.3702 7.79362 2.6781 8.6565 2.6781C8.81442 2.67827 8.96917 2.63436 9.10284 2.55144L9.65223 2.21122C10.3196 1.79839 11.0886 1.58008 11.8765 1.58008H13.3331C14.2893 1.58008 15.1882 1.94753 15.8642 2.61412C16.5403 3.28115 16.9122 4.16778 16.9117 5.11061L16.91 8.14616Z" fill="white"/>
</svg>

<svg xmlns="http://www.w3.org/2000/svg" width="24" height="24" fill="none"><path fill="#fff" d="M16.91 8.146h.132c.34 0 .657.15.869.414.212.263.29.602.213.929l-.12.512c-.118.499-.563.848-1.083.848h-.14a6.26 6.26 0 0 1-2.045 3.997L14.72 15c-.043.377.007.758.145 1.112a.3.3 0 0 0 .168.167l3.558 1.37a4.5 4.5 0 0 1 2.095 1.644 4.4 4.4 0 0 1 .79 2.522.817.817 0 0 1-.817.817H3.344a.817.817 0 0 1-.817-.817c0-.903.273-1.776.79-2.522a4.5 4.5 0 0 1 2.095-1.643L8.97 16.28a.3.3 0 0 0 .169-.167c.137-.352.187-.737.145-1.112l-.018-.155a6.26 6.26 0 0 1-2.045-3.997h-.14c-.52 0-.964-.349-1.082-.848l-.12-.512c-.077-.327 0-.666.213-.93.212-.262.529-.413.87-.413h.13V4.221c0-.85.702-1.543 1.564-1.543a.85.85 0 0 0 .447-.127l.55-.34a4.2 4.2 0 0 1 2.223-.63h1.457c.956 0 1.855.367 2.531 1.033a3.48 3.48 0 0 1 1.048 2.497z"/></svg>
